X:1
T:Nims Lake, 87.87.87 D
T:Charles Hutchinson Gabriel, 1914
T:Nims Lake, 87.87.87 D
T:Public Domain
C:Charles Hutchinson Gabriel, 1914
Z:Public Domain
%%score ( 1 2 ) ( 3 4 )
L:1/8
M:4/4
K:F
V:1 treble 
V:2 treble 
V:3 bass 
V:4 bass 
V:1
 [FA]2 | [Fc]3 [Fc] [Fc]2 [Fc]2 | [Af]4 [Fc]2 [FB]2 | [FA]3 [EG] F2 [EG]2 | [Fc]6 [Fc]2 | %5
 [Fd]3 [Ac] [GB]2 [F=B]2 | [Fc]4 [FA]2 [^DA]2 | [EB]2 [Gc]2 [FA]2 [GB]2 | (F4 E2) [FA]2 | %9
 [Fc]3 [Fc] [FB]2 [Fc]2 | [Af]4 [Fc]2 [Fc]2 | [G^c]2 [Gc]2 [Fd]2 [F_e]2 | [Fd]6 [Fd]2 | %13
 [FG]3 [FG] [FA]2 [EB]2 | (F2 E2) [Fc]2 [FB]2 | [FA]3 [FA] [FG]2 [EG]2 | F6 [Fc]2 | %17
 [Ec]3 [CE] [CE]2 [Ed]2 | [Fc]4 [FA]2 [Fc]2 | [Ec]3 [CE] [CE]2 [Ed]2 | [Fc]6 [Ac]2 | %21
 [Af]3 [Fc] [Fe]2 [Fd]2 | (F2 E2) [Fc]2 [FB]2 | [FA]3 [FA] [FG]2 [EG]2 | [CF]6 |] %25
V:2
 x2 | x8 | x8 | x4 F2 x2 | x8 | x8 | x8 | x8 | G6 x2 | x8 | x8 | x8 | x8 | x8 | c4 x4 | x8 | %16
 F6 x2 | x8 | x8 | x8 | x8 | x8 | c4 x4 | x8 | x6 |] %25
V:3
 [F,C]2 | [F,A,]3 [F,A,] [F,A,]2 [F,A,]2 | [F,C]4 [F,A,]2 [F,D]2 | [F,C]3 [B,C] [A,C]2 C2 | %4
 [A,C]6 [A,C]2 | B,3 [^F,D] [G,D]2 [^G,D]2 | [A,C]4 [F,C]2 [^F,C]2 | [G,C]2 [E,C]2 [F,C]2 [G,,D]2 | %8
 [C,C]6 [F,C]2 | [F,A,]3 [F,A,] [F,A,]2 [F,A,]2 | [F,C]4 [F,A,]2 [F,A,]2 | %11
 [E,A,]2 [E,A,]2 [D,A,]2 [C,A,]2 | [B,,B,]6 [B,,B,]2 | [B,D]3 [B,D] [A,C]2 [G,C]2 | %14
 ([F,A,]2 [G,B,]2) [A,C]2 [B,D]2 | C3 C [C,C]2 [C,B,]2 | [F,A,]6 [F,A,]2 | %17
 [G,B,]3 [G,B,] [C,B,]2 [C,B,]2 | [F,A,]4 [F,C]2 [F,A,]2 | [G,B,]3 [G,B,] [C,B,]2 [C,B,]2 | %20
 [F,A,]6 [F,C]2 | [F,C]3 [A,C] [B,C]2 B,2 | ([F,A,]2 [G,B,]2) [A,C]2 [B,D]2 | C3 C [C,C]2 [C,B,]2 | %24
 [F,,F,A,]6 |] %25
V:4
 x2 | x8 | x8 | x8 | x8 | B,3 x5 | x8 | x8 | x8 | x8 | x8 | x8 | x8 | x8 | x8 | C3 C x4 | x8 | x8 | %18
 x8 | x8 | x8 | x6 B,2 | x8 | C3 C x4 | x6 |] %25

